Newaita/actions/16/document-share.svg

<svg height="16" viewBox="0 0 16 16" width="16" xmlns="http://www.w3.org/2000/svg"><g fill="#424242"><path d="m3.96875 6.078125c-1.097656 0-1.984375.886719-1.984375 1.984375 0 1.101562.886719 1.984375 1.984375 1.984375 1.101562 0 1.984375-.882813 1.984375-1.984375 0-1.097656-.882813-1.984375-1.984375-1.984375zm0 1.324219c.367188 0 .660156.292968.660156.660156s-.292968.664062-.660156.664062-.660156-.296874-.660156-.664062.292968-.660156.660156-.660156zm0 0"/><path d="m11.90625 1.449219c-1.097656 0-1.984375.882812-1.984375 1.984375 0 1.097656.886719 1.984375 1.984375 1.984375 1.101562 0 1.984375-.886719 1.984375-1.984375 0-1.101563-.882813-1.984375-1.984375-1.984375zm0 1.320312c.367188 0 .664062.296875.664062.664063 0 .367187-.296874.660156-.664062.660156s-.660156-.292969-.660156-.660156c0-.367188.292968-.664063.660156-.664063zm0 0"/><path d="m11.90625 10.710938c-1.097656 0-1.984375.882812-1.984375 1.984374 0 1.097657.886719 1.984376 1.984375 1.984376 1.101562 0 1.984375-.886719 1.984375-1.984376 0-1.101562-.882813-1.984374-1.984375-1.984374zm0 1.320312c.367188 0 .664062.296875.664062.664062 0 .363282-.296874.660157-.664062.660157s-.660156-.296875-.660156-.660157c0-.367187.292968-.664062.660156-.664062zm0 0"/><path d="m7.113281 5.582031c.363281 0 .660157.296875.660157.660157 0 .367187-.296876.664062-.660157.664062-.367187 0-.664062-.296875-.664062-.664062 0-.363282.296875-.660157.664062-.660157zm0 0"/><path d="m8.765625 4.589844c.363281 0 .660156.296875.660156.660156 0 .367188-.296875.664062-.660156.664062-.367187 0-.660156-.296874-.660156-.664062 0-.363281.292969-.660156.660156-.660156zm0 0"/><path d="m7.113281 10.542969c.363281 0 .660157-.296875.660157-.660157 0-.367187-.296876-.660156-.660157-.660156-.367187 0-.664062.292969-.664062.660156 0 .363282.296875.660157.664062.660157zm0 0"/><path d="m8.765625 11.535156c.363281 0 .660156-.296875.660156-.660156 0-.367188-.296875-.660156-.660156-.660156-.367187 0-.660156.292968-.660156.660156 0 .363281.292969.660156.660156.660156zm0 0"/></g></svg>

<svg xmlns="http://www.w3.org/2000/svg" xmlns:xlink="http://www.w3.org/1999/xlink" width="16px" height="16px" viewBox="0 0 16 16" version="1.1">
<g id="surface1">
     <defs>
  <style id="current-color-scheme" type="text/css">
   .ColorScheme-Text { color:#424242; } .ColorScheme-Highlight { color:#eeeeee; }
  </style>
 </defs>
<path style="fill:currentColor" class="ColorScheme-Text" d="M 3.96875 6.078125 C 2.871094 6.078125 1.984375 6.964844 1.984375 8.0625 C 1.984375 9.164062 2.871094 10.046875 3.96875 10.046875 C 5.070312 10.046875 5.953125 9.164062 5.953125 8.0625 C 5.953125 6.964844 5.070312 6.078125 3.96875 6.078125 Z M 3.96875 7.402344 C 4.335938 7.402344 4.628906 7.695312 4.628906 8.0625 C 4.628906 8.429688 4.335938 8.726562 3.96875 8.726562 C 3.601562 8.726562 3.308594 8.429688 3.308594 8.0625 C 3.308594 7.695312 3.601562 7.402344 3.96875 7.402344 Z M 3.96875 7.402344 "/>
     <defs>
  <style id="current-color-scheme" type="text/css">
   .ColorScheme-Text { color:#424242; } .ColorScheme-Highlight { color:#eeeeee; }
  </style>
 </defs>
<path style="fill:currentColor" class="ColorScheme-Text" d="M 11.90625 1.449219 C 10.808594 1.449219 9.921875 2.332031 9.921875 3.433594 C 9.921875 4.53125 10.808594 5.417969 11.90625 5.417969 C 13.007812 5.417969 13.890625 4.53125 13.890625 3.433594 C 13.890625 2.332031 13.007812 1.449219 11.90625 1.449219 Z M 11.90625 2.769531 C 12.273438 2.769531 12.570312 3.066406 12.570312 3.433594 C 12.570312 3.800781 12.273438 4.09375 11.90625 4.09375 C 11.539062 4.09375 11.246094 3.800781 11.246094 3.433594 C 11.246094 3.066406 11.539062 2.769531 11.90625 2.769531 Z M 11.90625 2.769531 "/>
     <defs>
  <style id="current-color-scheme" type="text/css">
   .ColorScheme-Text { color:#424242; } .ColorScheme-Highlight { color:#eeeeee; }
  </style>
 </defs>
<path style="fill:currentColor" class="ColorScheme-Text" d="M 11.90625 10.710938 C 10.808594 10.710938 9.921875 11.59375 9.921875 12.695312 C 9.921875 13.792969 10.808594 14.679688 11.90625 14.679688 C 13.007812 14.679688 13.890625 13.792969 13.890625 12.695312 C 13.890625 11.59375 13.007812 10.710938 11.90625 10.710938 Z M 11.90625 12.03125 C 12.273438 12.03125 12.570312 12.328125 12.570312 12.695312 C 12.570312 13.058594 12.273438 13.355469 11.90625 13.355469 C 11.539062 13.355469 11.246094 13.058594 11.246094 12.695312 C 11.246094 12.328125 11.539062 12.03125 11.90625 12.03125 Z M 11.90625 12.03125 "/>
     <defs>
  <style id="current-color-scheme" type="text/css">
   .ColorScheme-Text { color:#424242; } .ColorScheme-Highlight { color:#eeeeee; }
  </style>
 </defs>
<path style="fill:currentColor" class="ColorScheme-Text" d="M 7.113281 5.582031 C 7.476562 5.582031 7.773438 5.878906 7.773438 6.242188 C 7.773438 6.609375 7.476562 6.90625 7.113281 6.90625 C 6.746094 6.90625 6.449219 6.609375 6.449219 6.242188 C 6.449219 5.878906 6.746094 5.582031 7.113281 5.582031 Z M 7.113281 5.582031 "/>
     <defs>
  <style id="current-color-scheme" type="text/css">
   .ColorScheme-Text { color:#424242; } .ColorScheme-Highlight { color:#eeeeee; }
  </style>
 </defs>
<path style="fill:currentColor" class="ColorScheme-Text" d="M 8.765625 4.589844 C 9.128906 4.589844 9.425781 4.886719 9.425781 5.25 C 9.425781 5.617188 9.128906 5.914062 8.765625 5.914062 C 8.398438 5.914062 8.105469 5.617188 8.105469 5.25 C 8.105469 4.886719 8.398438 4.589844 8.765625 4.589844 Z M 8.765625 4.589844 "/>
     <defs>
  <style id="current-color-scheme" type="text/css">
   .ColorScheme-Text { color:#424242; } .ColorScheme-Highlight { color:#eeeeee; }
  </style>
 </defs>
<path style="fill:currentColor" class="ColorScheme-Text" d="M 7.113281 10.542969 C 7.476562 10.542969 7.773438 10.246094 7.773438 9.882812 C 7.773438 9.515625 7.476562 9.222656 7.113281 9.222656 C 6.746094 9.222656 6.449219 9.515625 6.449219 9.882812 C 6.449219 10.246094 6.746094 10.542969 7.113281 10.542969 Z M 7.113281 10.542969 "/>
     <defs>
  <style id="current-color-scheme" type="text/css">
   .ColorScheme-Text { color:#424242; } .ColorScheme-Highlight { color:#eeeeee; }
  </style>
 </defs>
<path style="fill:currentColor" class="ColorScheme-Text" d="M 8.765625 11.535156 C 9.128906 11.535156 9.425781 11.238281 9.425781 10.875 C 9.425781 10.507812 9.128906 10.214844 8.765625 10.214844 C 8.398438 10.214844 8.105469 10.507812 8.105469 10.875 C 8.105469 11.238281 8.398438 11.535156 8.765625 11.535156 Z M 8.765625 11.535156 "/>
</g>
</svg>
